!!!!SEGMENT: pl-wn--sd-xvi-qu-273--023_gomolka-mikolaj--moj-wiekuisty-pasterz-mie-pasie.krn
!!!cenid: 15xx:228
!!!COM: Gomółka, Mikołaj
!!!COM-rismid: pe30013343
!!!CDT: ~1535->1591/04/30
!!!CNT: Polish
!!!GTL: Melodiae na psalterz polski
!!!OTL: XXIII. Mój wiekuisty Pasterz mię pasie,
!!!PDT: 1580
!!!AGN: Sacred
!!!SMS-siglum: PL-Wn
!!!SMS-shelfmark: SD XVI.Qu.273
!!!SMS-shelfwork: 023 G
!!!NIFC-rismid:
!!!ONB-nifc: Melodiae na psalterz polski
**kern	**text	**text	**kern	**text	**text	**kern	**text	**text	**kern	**text	**text
*part4	*part4	*part4	*part3	*part3	*part3	*part2	*part2	*part2	*part1	*part1	*part1
*staff4	*staff4	*staff4	*staff3	*staff3	*staff3	*staff2	*staff2	*staff2	*staff1	*staff1	*staff1
*clefF4	*	*	*clefC3	*	*	*clefC3	*	*	*clefC1	*	*
*k[b-]	*	*	*k[b-]	*	*	*k[b-]	*	*	*k[b-]	*	*
*e-:	*	*	*e-:	*	*	*e-:	*	*	*e-:	*	*
*M4/2	*	*	*M4/2	*	*	*M4/2	*	*	*M4/2	*	*
*met(C|)	*	*	*met(C|)	*	*	*met(C|)	*	*	*met(C|)	*	*
*>[A,A,B]	*	*	*>[A,A,B]	*	*	*>[A,A,B]	*	*	*>[A,A,B]	*	*
*xywh-25v:3275,5421,3040,1316	*	*	*xywh-25v:3246,4115,3078,1307	*	*	*xywh-25v:3014,2798,3320,1345	*	*	*xywh-25v:2859,1181,3456,1713	*	*
*>A	*	*	*>A	*	*	*>A	*	*	*>A	*	*
=1-	=1-	=1-	=1-	=1-	=1-	=1-	=1-	=1-	=1-	=1-	=1-
1r	.	.	1r	.	.	1r	.	.	1r	.	.
2r	.	.	2r	.	.	2r	.	.	2r	.	.
2G\	Móy	Nię	2B-/	Móy	Nie	2d\	Móy	Nie	2b-\	Móy	Nie
=2-	=2-	=2-	=2-	=2-	=2-	=2-	=2-	=2-	=2-	=2-	=2-
2F\	wie-	zéy-	2c/	wie-	zéy-	2f\	wie-	zéy-	2a\	wie-	zéy-
2E-\X	-ku-	-dźie	2c/	-ku-	(-dźie)	4g\	-ku-	-dźie	2g/	-ku-	-d(źie)
.	.	.	.	.	.	4a\	.	.	.	.	.
1D\	-i-	mi	2.d\	-i-	mi	2.b-\	-i-	mi	2.f/	-i-	mi
.	.	.	4c/	.	.	4a\	.	.	4e/	.	.
=3-	=3-	=3-	=3-	=3-	=3-	=3-	=3-	=3-	=3-	=3-	=3-
2D/	-ſty	nic	2B-/	-ſty	nic	2f\	-ſty	nic	2d/	-ſty	nic
2D/	páſ-	na	2f\	páſ-	ná	4b-\	páſ-	ná	2dd\	páſ-	ná
.	.	.	.	.	.	4a\	.	.	.	.	.
2E-\X	-térz	za(d-	2.e-\X	-térz	żad-	4g\	-térz	żad-	2cc\	-térz	żad-
.	.	.	.	.	.	4f\	.	.	.	.	.
2E-\	mię	-nym)	.	.	.	2g\	mię	-nym	1b-\	mię	(-nym)
.	.	.	4d\	.	.	.	.	.	.	.	.
=4-	=4-	=4-	=4-	=4-	=4-	=4-	=4-	=4-	=4-	=4-	=4-
1F\	pá-	wczá-	4c/	mię	-nym	2.f\	pá-	wczá-	.	.	.
.	.	.	4B-/	.	.	.	.	.	.	.	.
.	.	.	2c/	pá-	wczá-	.	.	.	2a\	pá-	wczá-
.	.	.	.	.	.	4e-\X	.	.	.	.	.
!!LO:PB:g=original
*xywh-26r:497,5348,4986,1277	*	*	*xywh-26r:574,4080,4910,1268	*	*	*xywh-26r:545,2783,4938,1353	*	*	*xywh-26r:526,1268,5014,1611	*	*
1BB-/	-sie,	-sie;	1B-/	-sie,	-sie;	1d\	-sie,	-sie;	1b-\	-sie,	-sie;
*>B	*	*	*>B	*	*	*>B	*	*	*>B	*	*
=:|!5-	=:|!5-	=:|!5-	=:|!5-	=:|!5-	=:|!5-	=:|!5-	=:|!5-	=:|!5-	=:|!5-	=:|!5-	=:|!5-
2r	.	.	2r	.	.	2r	.	.	2r	.	.
2D\	Zá-	.	2B-/	Zá-	.	2f\	Zá-	.	2f/	Zá-	.
2E-\X	-wiód(ł)	.	2B-/	-wió(dł)	.	2e-\X	-w(iódł)	.	2g/	-w(iódł)	.
2F\	mię	.	2A/	mię	.	2c/	m(ię)	.	2a\	mię	.
=6-	=6-	=6-	=6-	=6-	=6-	=6-	=6-	=6-	=6-	=6-	=6-
2.BB-/	w pa-	.	1d\	w pa-	.	2.f\	w pa-	.	2.b-\	w pa-	.
4C/	.	.	.	.	.	4e\	.	.	4a\	.	.
2D\	-ſzé	.	2d\	(-ſzé)	.	4d\	-ſzé	.	2f/	-ſzé	.
.	.	.	.	.	.	4c/	.	.	.	.	.
2B-\	nie-	.	2d\	nie-	.	2B-/	nie-	.	2g/	nie-	.
=7-	=7-	=7-	=7-	=7-	=7-	=7-	=7-	=7-	=7-	=7-	=7-
2B-\	-poſ-	.	2d\	-poſ-	.	2B-/	-po-	.	2f/	-po-	.
2A\	-po-	.	1c\	--po-	.	2c/	-ſpo-	.	1f/	-poſ-	.
1G\	-li-	.	.	.	.	2d\	(-li-	.	.	.	.
.	.	.	2B-/	(-li	.	2G/	.	.	2e/	-li-	.
=8-	=8-	=8-	=8-	=8-	=8-	=8-	=8-	=8-	=8-	=8-	=8-
2F\	-té,	.	2c\	-té,)	.	2A/	-té,)	.	2f/	-té:	.
2F\	Nád	.	2f\	Nád	.	2c/	Nád	.	2a\	.	.
2.B-\	.	.	4d\	zdro-	.	4B-/	.	.	2.dd\	Nád	.
.	.	.	4e\	.	.	4c/	.	.	.	.	.
.	.	.	2f\	-ie	.	2d\	zdro-	.	.	.	.
4A\	zdro-	.	.	.	.	.	.	.	4cc\	.	.
=9-	=9-	=9-	=9-	=9-	=9-	=9-	=9-	=9-	=9-	=9-	=9-
2G\	-ie	.	1B-/	ży-	.	4d\	-ie	.	2b-\	zdro-	.
.	.	.	.	.	.	4c\	.	.	.	.	.
2G\	ży-	.	.	.	.	4d\	ży-	.	4a\	(-ie)	.
.	.	.	.	.	.	4e\	.	.	4g\	.	.
2F\	(-wéy)	.	4c\	-wéy	.	2f\	-wéy	.	4a\	ży-	.
.	.	.	4d\	.	.	.	.	.	4b-\	-w(éy)	.
2E\	wo-	.	2e-\X	wo-	.	2g\	wo-	.	2.cc\	wo-	.
=10-	=10-	=10-	=10-	=10-	=10-	=10-	=10-	=10-	=10-	=10-	=10-
2F\	(-dy)	.	2d\	-dy	.	2f\	-dy	.	.	.	.
.	.	.	.	.	.	.	.	.	4b-\	-dy	.
2G\	ób-	.	4c\	ob-	.	2e-\X	ob-	.	1b-\	ob-	.
.	.	.	4B-/	.	.	.	.	.	.	.	.
1F\	-fii-	.	1c\	-fi-	.	2.f\	-fi-	.	.	.	.
.	.	.	.	.	.	.	.	.	2a\	-fi-	.
.	.	.	.	.	.	4e\	.	.	.	.	.
=11-	=11-	=11-	=11-	=11-	=11-	=11-	=11-	=11-	=11-	=11-	=11-
!	!	!	!	!	!	!LO:N:vis=00	!	!	!	!	!
000BB-/	-té.	.	000B-/	-té.	.	000d\;	-té.	.	000b-\	-té.	.
==	==	==	==	==	==	==	==	==	==	==	==
*-	*-	*-	*-	*-	*-	*-	*-	*-	*-	*-	*-
!!!RDF**kern: l = terminal long
!!!system-decoration: s1,s2,s3,s4
!!!ENC: Leszek Kubiak
!!!END: data 2020-02-05
!!!URL-scan: https://polona.pl/item/melodiae-na-psalterz-polski,Nzk3MTM4ODQ/67 Scan on Polona
!!!IIIF: https://polona.pl/iiif/item/Nzk3MTM4ODQ/manifest.json
